public/icons/insurance_icon.svg

<svg width="330" height="330" viewBox="0 0 330 330" fill="none" xmlns="http://www.w3.org/2000/svg">
<path d="M163.626 12C165.379 12.0645 167.527 12.2139 168.863 13.5178C170.634 15.2455 170.269 18.2255 170.165 20.47C173.312 20.6104 176.426 20.8284 179.544 21.2946C203.441 24.8634 224.099 37.4509 238.38 56.8779C243.514 63.8627 255.783 84.1527 254.144 92.6113C253.823 94.2638 252.968 95.0354 251.633 95.9563C246.99 96.8414 240.129 90.2199 236.006 88.0179C233.121 86.5123 230.037 85.4215 226.848 84.7757C212.745 82.003 205.906 92.6382 195.714 98.5992C195.367 98.8025 194.019 99.5717 193.584 99.5325C191.502 99.3447 183.461 90.9343 180.784 89.2181C177.413 87.0577 173.876 86.0322 170.059 84.9741L170.024 114.57C189.362 124.362 209.384 131.541 230.858 134.916C237.196 135.913 249.433 136.037 254.561 137.674C255.55 137.99 256.305 138.582 256.798 139.48C258.719 142.987 257.769 150.731 257.739 154.702C257.576 176.412 257.177 197.325 250.82 218.32C237.856 261.142 205.29 296.113 166.197 317.054C165.829 316.998 165.46 316.938 165.097 316.852C159.912 315.625 153.746 311.071 149.331 308.066C127.508 293.211 108.45 275.136 94.7161 252.426C77.1367 223.36 72.6968 194.251 72.4184 160.866C72.3702 155.021 71.2288 146.139 72.9344 140.59C73.8692 137.55 77.3686 137.158 80.125 136.878C84.5462 136.429 89.0008 136.388 93.4114 135.783C117.291 132.51 139.307 124.702 160.783 113.928L160.757 85.2402C147.442 88.889 144.197 97.0194 137.967 99.3291C135.781 100.139 123.312 89.5111 120.565 88.1027C108.324 81.8282 98.6808 84.8002 87.6749 91.7948C85.3749 93.2555 82.3866 95.5947 79.6882 96.1319C78.7386 96.3213 78.4121 96.1956 77.7262 95.6159C76.5954 94.6582 76.2101 93.5731 76.1137 92.1116C75.4173 81.5621 89.507 59.7657 96.3947 51.7472C113.028 32.3855 135.203 22.2719 160.446 20.2994C160.605 16.4652 160.847 14.7637 163.626 12Z" fill="#080807"/>
<path d="M164.161 122.401C168.505 122.584 174.802 127.158 178.985 128.989C201.457 138.829 224.571 143.525 248.777 146.443C248.839 166.092 249.077 185.92 244.779 205.207C234.331 252.088 205.345 281.674 165.926 306.671L165.323 306.846C157.528 305.353 131.464 283.25 125.017 276.767C101.408 253.146 86.5342 222.197 82.8389 189.002C81.2941 174.624 81.7105 160.031 81.7277 145.586C111.27 143.882 137.638 135.103 164.161 122.401Z" fill="#FEFEFE"/>
<path d="M199.993 173.962C203.549 173.752 206.509 173.882 209.491 176.164C211.783 177.917 213.317 180.256 213.665 183.149C214.005 185.982 213.315 188.941 211.547 191.186C203.808 201.01 193.686 210.125 184.937 219.126C177.151 227.137 169.325 236.455 160.75 243.576C158.658 245.312 156.043 247.278 153.293 247.631C145.19 245.948 138.343 235.818 132.87 229.983C128.519 225.562 120.854 219.586 120.481 212.893C120.342 210.144 121.366 207.463 123.301 205.506C125.304 203.452 128.047 202.288 130.914 202.273C138.84 202.277 148.208 214.875 153.549 220.471C162.967 211.356 192.061 178.24 199.993 173.962Z" fill="#080807"/>
<path d="M201.914 182.707C203.338 183.015 203.791 183.194 204.778 184.267C204.765 184.77 204.876 185.292 204.738 185.776C204.21 187.638 158.509 233.857 153.527 238.864C146.413 231.78 139.56 224.377 132.596 217.14C131.72 216.251 130.906 215.26 130.073 214.329C129.737 212.846 129.445 212.518 130.149 211.122C134.539 211.467 149.166 228.404 153.587 232.475C159.982 227.151 165.742 220.632 171.53 214.642C181.752 204.086 191.88 193.441 201.914 182.707Z" fill="#FEFEFE"/>
<path d="M158.995 29.5516C170.22 28.3563 182.613 30.1778 193.23 33.9042C216.271 41.9921 231.309 58.6586 241.673 80.2606C236.296 77.879 231.043 76.091 225.118 75.7782C212.886 75.1308 203.324 80.0386 194.454 87.9664C188.093 81.9589 182.017 78.733 173.574 76.5416C171.317 76.1065 168.972 75.9432 166.677 75.8624C155.072 75.455 145.562 80.237 137.202 87.9248C132.788 84.3912 128.433 81.2282 123.171 79.0221C111.69 74.2074 100.407 75.1651 89.1143 79.7593C92.5581 72.274 96.7547 65.2777 102.007 58.9166C116.585 41.2622 136.409 31.7283 158.995 29.5516Z" fill="#FFD026"/>
</svg>

<svg xmlns="http://www.w3.org/2000/svg" width="330" height="330" fill="none" viewBox="0 0 330 330"><path fill="#080807" d="M163.626 12c1.753.065 3.901.214 5.237 1.518 1.771 1.727 1.406 4.708 1.302 6.952 3.147.14 6.261.358 9.379.825 23.897 3.568 44.555 16.156 58.836 35.583 5.134 6.985 17.403 27.275 15.764 35.733-.321 1.653-1.176 2.424-2.511 3.345-4.643.885-11.504-5.736-15.627-7.938a34.7 34.7 0 0 0-9.158-3.242c-14.103-2.773-20.942 7.862-31.134 13.823-.347.203-1.695.973-2.13.933-2.082-.187-10.123-8.598-12.8-10.314-3.371-2.16-6.908-3.186-10.725-4.244l-.035 29.596c19.338 9.792 39.36 16.971 60.834 20.346 6.338.997 18.575 1.121 23.703 2.758.989.316 1.744.908 2.237 1.806 1.921 3.507.971 11.251.941 15.222-.163 21.71-.562 42.623-6.919 63.618-12.964 42.822-45.53 77.793-84.623 98.734a14 14 0 0 1-1.1-.202c-5.185-1.227-11.351-5.781-15.766-8.786-21.823-14.855-40.881-32.93-54.615-55.64-17.58-29.066-22.02-58.175-22.298-91.56-.048-5.845-1.19-14.727.516-20.276.935-3.04 4.435-3.432 7.191-3.712 4.421-.449 8.876-.49 13.286-1.095 23.88-3.273 45.896-11.081 67.372-21.855l-.026-28.688c-13.315 3.649-16.56 11.78-22.79 14.09-2.186.809-14.655-9.819-17.402-11.227-12.241-6.275-21.884-3.303-32.89 3.692-2.3 1.46-5.288 3.8-7.987 4.337-.95.19-1.276.064-1.962-.516-1.13-.958-1.516-2.043-1.612-3.504-.697-10.55 13.393-32.346 20.28-40.365 16.634-19.361 38.809-29.475 64.052-31.448.159-3.834.401-5.535 3.18-8.299"/><path fill="#fefefe" d="M164.161 122.401c4.344.183 10.641 4.757 14.824 6.588 22.472 9.84 45.586 14.536 69.792 17.454.062 19.649.3 39.477-3.998 58.764-10.448 46.881-39.434 76.467-78.853 101.464l-.603.175c-7.795-1.493-33.859-23.596-40.306-30.079a147.18 147.18 0 0 1-42.178-87.765c-1.545-14.378-1.129-28.971-1.111-43.416 29.542-1.704 55.91-10.483 82.433-23.185"/><path fill="#080807" d="M199.993 173.962c3.556-.21 6.516-.08 9.498 2.202 2.292 1.753 3.826 4.092 4.174 6.985.34 2.833-.35 5.792-2.118 8.037-7.739 9.824-17.861 18.939-26.61 27.94-7.786 8.011-15.612 17.329-24.187 24.45-2.092 1.736-4.707 3.702-7.457 4.055-8.103-1.683-14.95-11.813-20.423-17.648-4.351-4.421-12.016-10.397-12.389-17.09a9.8 9.8 0 0 1 2.82-7.387 10.7 10.7 0 0 1 7.613-3.233c7.926.004 17.294 12.602 22.635 18.198 9.418-9.115 38.512-42.231 46.444-46.509"/><path fill="#fefefe" d="M201.914 182.707c1.424.308 1.877.487 2.864 1.56-.013.503.098 1.025-.04 1.509-.528 1.862-46.229 48.081-51.211 53.088-7.114-7.084-13.967-14.487-20.931-21.724-.876-.889-1.69-1.88-2.523-2.811-.336-1.483-.628-1.811.076-3.207 4.39.345 19.017 17.282 23.438 21.353 6.395-5.324 12.155-11.843 17.943-17.833a2502 2502 0 0 0 30.384-31.935"/><path fill="#ffd026" d="M158.995 29.552c11.225-1.196 23.618.626 34.235 4.352 23.041 8.088 38.079 24.755 48.443 46.357-5.377-2.382-10.63-4.17-16.555-4.483-12.232-.647-21.794 4.26-30.664 12.188-6.361-6.007-12.437-9.233-20.88-11.424-2.257-.436-4.602-.599-6.897-.68-11.605-.407-21.115 4.375-29.475 12.063-4.414-3.534-8.769-6.697-14.031-8.903-11.481-4.815-22.764-3.857-34.057.737 3.444-7.485 7.64-14.481 12.893-20.842 14.578-17.655 34.402-27.189 56.988-29.365"/></svg>
